X: 1
T: Kilfenora, The
M: 4/4
L: 1/8
R: reel
K: Dmaj
|:A2FA A2FA | B2GB B2GB |1 A2FA A2FA | EFGA BcdB :|2 AdcB AGFE | DDCE D2 |
|:Adfd Adfd | Acec Acec |1 Adfd Adfd | dABc d2cB :|2 d2cB AGFE | DDCE D2 |
